X:5078
T:Persian Waltz,The. HSJJ.082
O:england
M:3/8
L:1/8
Q:30
S:HSJ Jackson,Wyresdale,Lancs.1823
R:Waltz
A:Lancashire
H:1823
K:D
A/F/|DDD|D2A/F/|DDD|D2d/c/|Bge|cag|fdd|d2|
|c/d/|eAA|A2d/e/|fAA|A2e/f/|gef|gef|g/f/e/d/c/B/|A2A/F/|
DDD|D2d/B/|GGG|G2a/g/|ff/g/a/f/|gg/a/b/g/|cc/d/e/c/|d2|]
